static/logos/breezy-wordmark-color.svg

<svg width="100" height="22" viewBox="0 0 100 22" fill="none" xmlns="http://www.w3.org/2000/svg">
<g clip-path="url(#clip0_1_3360)">
<path fill-rule="evenodd" clip-rule="evenodd" d="M11.6127 0.210756C9.58578 0.759576 7.94393 1.97374 6.88589 3.70636L6.55617 4.24627L5.58428 4.43006C3.86325 4.7554 2.40477 5.62428 1.43846 6.90013C0.496406 8.1439 0.0625 9.41977 0.0625 10.9454C0.0625 12.104 0.232028 12.8097 0.782672 13.9418C1.54672 15.5131 3.00724 16.7407 4.82902 17.343C5.37237 17.5226 6.01142 17.5409 12.8928 17.5726C19.3758 17.6027 20.4622 17.585 21.0899 17.4395C24.4974 16.6491 26.2671 12.9061 24.6989 9.80626C24.0887 8.60014 22.8893 7.53984 21.681 7.13854C21.1719 6.96945 21.1636 6.95926 21.0926 6.42374C21.0529 6.12492 20.8809 5.49799 20.7103 5.03061C19.9062 2.82738 18.1054 1.10989 15.7732 0.321915C14.748 -0.024544 12.685 -0.0795869 11.6127 0.210756ZM31.3909 0.239726C31.2432 0.450563 31.2239 1.44392 31.2239 8.82342C31.2239 17.0255 31.2275 17.1722 31.4385 17.3832C31.5565 17.5012 31.7496 17.5977 31.8677 17.5977C31.9857 17.5977 32.1788 17.5012 32.2968 17.3832C32.4812 17.1988 32.5114 17.0255 32.5114 16.1527V15.1368L33.3474 15.9852C34.3245 16.9769 35.291 17.5043 36.5074 17.7094C39.4883 18.2122 42.4607 16.1454 43.187 13.0649C43.3927 12.1925 43.3921 10.5188 43.1858 9.70722C42.4726 6.90143 40.1474 5.04048 37.3613 5.04542C35.6776 5.04842 34.1797 5.80561 33.0051 7.24746L32.5114 7.85347V4.16579C32.5114 1.00185 32.4877 0.444233 32.3444 0.239726C32.1206 -0.0799088 31.6148 -0.0799088 31.3909 0.239726ZM14.7539 1.55742C16.8551 1.99863 18.6913 3.59402 19.3812 5.57804C19.5183 5.97224 19.675 6.69231 19.7294 7.17836C19.7836 7.6643 19.853 8.08673 19.8833 8.11698C19.9136 8.14735 20.2801 8.26001 20.6977 8.36741C22.0506 8.71548 22.9258 9.41999 23.4841 10.6107C23.7273 11.1295 23.7668 11.3558 23.7668 12.2329C23.7668 13.1421 23.7329 13.3212 23.4536 13.8902C23.0547 14.7027 22.3667 15.3906 21.5883 15.7555L20.9771 16.042L13.4127 16.071C6.06507 16.0992 5.82773 16.0938 5.12838 15.8814C3.6934 15.4457 2.37398 14.2209 1.81346 12.8042C1.60584 12.2795 1.56615 11.9813 1.56615 10.9454C1.56615 9.90947 1.60584 9.6113 1.81346 9.08662C2.37097 7.67761 3.6831 6.45442 5.1096 6.01375C6.06024 5.72019 7.69372 5.71215 8.32312 5.99798C10.2943 6.89337 10.7204 9.49778 9.1199 10.8677C8.38041 11.5006 7.81303 11.5878 6.21443 11.3138C5.75048 11.2343 5.4728 11.4545 5.4728 11.902C5.4728 12.2987 5.72033 12.4986 6.48471 12.7194C8.22494 13.2221 10.193 12.2333 11.0289 10.4361C11.2821 9.89177 11.3164 9.68576 11.3183 8.6922C11.3202 7.69649 11.2876 7.49552 11.0377 6.96258C10.5363 5.89316 9.74962 5.16709 8.66829 4.77557L8.03653 4.54681L8.52537 3.88253C9.90906 2.00303 12.4169 1.06676 14.7539 1.55742ZM55.6085 5.20957C54.1342 5.60657 52.6608 6.8554 51.9894 8.27686C51.4019 9.52074 51.2557 10.2579 51.3118 11.6937C51.3864 13.6048 51.9668 14.9804 53.1991 16.1667C55.4563 18.3398 59.3086 18.3304 61.5619 16.1462C61.9307 15.7887 62.2325 15.438 62.2325 15.3667C62.2325 15.1724 61.8296 14.808 61.6148 14.808C61.5111 14.808 61.166 15.0215 60.848 15.2824C59.7126 16.2137 58.6084 16.6321 57.2856 16.6321C54.9413 16.6321 52.9366 14.8394 52.6211 12.4607L52.5481 11.9111H57.3903C62.179 11.9111 62.2349 11.9086 62.4597 11.6838C62.6641 11.4794 62.6796 11.3821 62.6138 10.7143C62.3332 7.86698 60.7753 5.82212 58.4189 5.20839C57.6442 5.00657 56.3601 5.0071 55.6085 5.20957ZM68.5298 5.20517C67.5685 5.46944 66.8167 5.92148 66.0424 6.70077C64.0801 8.67599 63.6024 11.8181 64.8614 14.4692C65.3521 15.5024 66.4891 16.6627 67.49 17.1514C69.4979 18.1321 71.9039 17.9716 73.7552 16.7334C75.004 15.8981 75.3472 15.3796 74.9118 14.9856C74.61 14.7126 74.4038 14.7674 73.7593 15.2924C70.6498 17.825 66.4935 16.5869 65.6166 12.8667C65.5274 12.4886 65.4538 12.119 65.453 12.0452C65.4517 11.9398 66.4951 11.9111 70.3167 11.9111C74.8939 11.9111 75.1925 11.8995 75.3596 11.7148C75.7533 11.2798 75.4664 9.46194 74.7862 8.08201C74.0596 6.60786 72.8598 5.60485 71.3386 5.20002C70.6313 5.01172 69.224 5.01429 68.5298 5.20517ZM49.5167 5.40249C48.3607 5.83242 47.3083 6.71012 46.5498 7.87728L46.138 8.51087V7.12331C46.138 5.56173 46.0351 5.25871 45.5048 5.25871C44.8303 5.25871 44.8505 5.06956 44.8505 11.3859C44.8505 16.4028 44.8714 17.1506 45.0175 17.3592C45.2082 17.6315 45.5715 17.6681 45.8761 17.4456C46.0721 17.3025 46.0877 17.1015 46.1405 14.0389C46.1949 10.8813 46.2048 10.7618 46.4729 10.0225C47.1736 8.09059 48.5229 6.90592 50.4402 6.53951C50.8181 6.4673 51.2112 6.36547 51.3138 6.31322C51.5923 6.17127 51.6635 5.73167 51.4585 5.41891C51.3078 5.18876 51.2051 5.15217 50.7225 5.157C50.414 5.16011 49.8714 5.27051 49.5167 5.40249ZM76.956 5.42577C76.6667 5.62835 76.6468 6.01999 76.9137 6.26141C77.0888 6.41999 77.5376 6.43897 81.0982 6.43897C83.2918 6.43897 85.0865 6.46194 85.0865 6.49005C85.0865 6.51816 83.1552 8.8393 80.7947 11.6482C78.4342 14.4571 76.5028 16.8408 76.5028 16.9453C76.5028 17.0498 76.5911 17.2152 76.6991 17.3129C76.8757 17.4727 77.3889 17.4904 81.8327 17.4904C86.4797 17.4904 86.7804 17.4789 86.9476 17.2942C87.1781 17.0396 87.1725 16.8154 86.9303 16.5963C86.7578 16.4401 86.2548 16.4168 82.5232 16.392L78.311 16.3638L80.6538 13.5741C86.7182 6.35314 86.9106 6.11569 86.9106 5.85356C86.9106 5.26665 86.8421 5.25871 81.814 5.25871C77.8065 5.25871 77.1628 5.28082 76.956 5.42577ZM88.6488 5.38748C88.578 5.45829 88.52 5.64542 88.52 5.80325C88.52 5.96108 89.752 8.63726 91.2577 11.7503L93.9953 17.4104L93.7261 17.9985C92.9017 19.7994 91.8395 20.458 90.2314 20.1661C88.8502 19.9153 88.765 19.9157 88.6275 20.1724C88.5583 20.3017 88.5293 20.5175 88.5631 20.6521C88.7244 21.2946 91.0899 21.5929 92.3336 21.1276C93.083 20.8472 93.9317 20.0281 94.4555 19.0797C94.9048 18.2663 100.001 6.11247 100.001 5.85442C100.001 5.47727 99.7876 5.25871 99.4199 5.25871C99.2227 5.25871 99.015 5.31912 98.9582 5.39283C98.9016 5.46665 97.8989 7.90604 96.7301 10.8137C95.5613 13.7215 94.592 16.0873 94.5761 16.0712C94.5602 16.0551 93.452 13.6761 92.1135 10.7844C90.7748 7.89284 89.6301 5.46665 89.5696 5.39283C89.4292 5.22202 88.8179 5.21838 88.6488 5.38748ZM57.8549 6.23769C59.4828 6.58319 60.6291 7.75442 61.1109 9.56462C61.1952 9.88147 61.2649 10.2977 61.2655 10.4894L61.2668 10.8381H56.9067H52.5466L52.6121 10.3604C52.8883 8.34595 54.266 6.71204 56.0629 6.26794C56.7572 6.09627 57.1567 6.08962 57.8549 6.23769ZM70.7173 6.22599C72.4143 6.54777 73.6262 7.85229 74.0752 9.83995C74.1712 10.2647 74.2496 10.663 74.2496 10.7251C74.2496 10.8024 72.8582 10.8381 69.8505 10.8381C66.4019 10.8381 65.4517 10.8091 65.453 10.704C65.4578 10.2908 65.8244 9.10914 66.1193 8.55581C66.7348 7.401 67.7045 6.60701 68.8874 6.28909C69.6026 6.09692 69.9699 6.08425 70.7173 6.22599ZM38.6346 6.39477C40.8228 7.03469 42.1733 9.18855 42.0263 11.8038C41.8775 14.4492 40.4799 16.1373 38.1003 16.5454C35.5876 16.9762 33.066 15.1819 32.5227 12.5764C31.8406 9.30571 34.1346 6.25422 37.2934 6.23018C37.7106 6.22696 38.3141 6.3011 38.6346 6.39477Z" fill="#071124"/>
</g>
<defs>
<clipPath id="clip0_1_3360">
<rect width="100" height="21.4592" fill="white"/>
</clipPath>
</defs>
</svg>

<svg xmlns="http://www.w3.org/2000/svg" width="290.909" height="64" fill="none" viewBox="0 0 100 22"><g clip-path="url(#a)"><path fill="#071124" fill-rule="evenodd" d="M11.613.21c-2.027.55-3.67 1.764-4.727 3.496l-.33.54-.972.184c-1.72.325-3.18 1.194-4.146 2.47C.496 8.144.063 9.42.063 10.945c0 1.159.169 1.865.72 2.997.764 1.571 2.224 2.799 4.046 3.401.543.18 1.182.198 8.064.23 6.483.03 7.57.012 8.197-.134 3.407-.79 5.177-4.533 3.609-7.633-.61-1.206-1.81-2.266-3.018-2.667-.51-.17-.517-.18-.588-.715-.04-.3-.212-.926-.383-1.393-.804-2.204-2.605-3.921-4.937-4.71-1.025-.346-3.088-.4-4.16-.11ZM31.39.24c-.148.21-.167 1.204-.167 8.583 0 8.203.003 8.35.215 8.56.117.118.31.215.429.215.118 0 .31-.097.429-.215.184-.184.214-.357.214-1.23v-1.016l.836.848c.977.992 1.944 1.52 3.16 1.724 2.981.503 5.954-1.564 6.68-4.644.206-.872.205-2.546-.001-3.358-.713-2.806-3.039-4.667-5.825-4.662-1.683.003-3.181.76-4.356 2.202l-.494.606V4.166c0-3.164-.023-3.722-.167-3.926a.594.594 0 0 0-.953 0ZM14.754 1.557C16.855 2 18.69 3.594 19.38 5.578a8.92 8.92 0 0 1 .348 1.6c.055.486.124.909.154.939.03.03.397.143.815.25 1.353.348 2.228 1.053 2.786 2.244.243.518.283.745.283 1.622 0 .91-.034 1.088-.313 1.657-.4.813-1.087 1.5-1.866 1.865l-.61.287-7.565.029c-7.348.028-7.585.023-8.285-.19-1.435-.435-2.754-1.66-3.315-3.077-.207-.524-.247-.823-.247-1.859s.04-1.334.247-1.858c.558-1.41 1.87-2.633 3.297-3.073.95-.294 2.584-.302 3.213-.016 1.971.895 2.397 3.5.797 4.87-.74.633-1.307.72-2.906.446-.464-.08-.741.14-.741.588 0 .397.247.597 1.012.817 1.74.503 3.708-.486 4.544-2.283.253-.544.287-.75.29-1.744.001-.996-.031-1.196-.281-1.73-.502-1.069-1.288-1.795-2.37-2.186l-.631-.23.488-.663c1.384-1.88 3.892-2.816 6.229-2.326ZM55.609 5.21c-1.475.397-2.948 1.645-3.62 3.067-.587 1.244-.733 1.98-.677 3.417.074 1.91.655 3.286 1.887 4.473 2.257 2.173 6.11 2.163 8.363-.02.369-.358.67-.709.67-.78 0-.195-.402-.559-.617-.559-.104 0-.449.213-.767.474-1.135.932-2.24 1.35-3.562 1.35-2.345 0-4.35-1.793-4.665-4.171l-.073-.55h4.842c4.789 0 4.845-.002 5.07-.227.204-.205.22-.302.154-.97-.28-2.847-1.839-4.892-4.195-5.506-.775-.201-2.059-.2-2.81.002Zm12.92-.005c-.96.264-1.712.716-2.487 1.496-1.962 1.975-2.44 5.117-1.18 7.768.49 1.033 1.627 2.194 2.628 2.682 2.008.981 4.414.82 6.265-.418 1.249-.835 1.592-1.353 1.157-1.747-.302-.273-.508-.219-1.153.306-3.11 2.533-7.266 1.295-8.142-2.425-.09-.378-.163-.748-.164-.822-.001-.105 1.042-.134 4.864-.134 4.577 0 4.876-.011 5.043-.196.393-.435.106-2.253-.574-3.633C74.06 6.608 72.86 5.605 71.34 5.2c-.708-.188-2.115-.186-2.81.005Zm-19.012.197c-1.156.43-2.209 1.308-2.967 2.475l-.412.634V7.123c0-1.561-.103-1.864-.633-1.864-.675 0-.655-.19-.655 6.127 0 5.017.021 5.765.167 5.973.191.272.554.31.86.087.195-.144.21-.345.264-3.407.054-3.158.064-3.277.332-4.016.7-1.932 2.05-3.117 3.967-3.483.378-.073.771-.175.874-.227.278-.142.35-.581.145-.894-.151-.23-.254-.267-.737-.262-.308.003-.85.114-1.205.245Zm27.439.024c-.29.202-.31.594-.042.835.175.159.624.178 4.184.178 2.194 0 3.989.023 3.989.051 0 .028-1.932 2.35-4.292 5.158-2.36 2.81-4.292 5.193-4.292 5.297 0 .105.088.27.196.368.177.16.69.177 5.134.177 4.647 0 4.947-.011 5.115-.196.23-.254.225-.479-.018-.698-.172-.156-.675-.18-4.407-.204l-4.212-.028 2.343-2.79c6.064-7.22 6.257-7.458 6.257-7.72 0-.587-.069-.595-5.097-.595-4.007 0-4.651.022-4.858.167Zm11.693-.039c-.071.071-.129.258-.129.416 0 .158 1.232 2.834 2.738 5.947l2.737 5.66-.269.588c-.824 1.801-1.886 2.46-3.495 2.168-1.38-.25-1.466-.25-1.603.006a.779.779 0 0 0-.065.48c.161.643 2.527.94 3.77.476.75-.28 1.599-1.1 2.123-2.048C94.904 18.266 100 6.112 100 5.854c0-.377-.213-.595-.581-.595-.197 0-.405.06-.462.134-.056.074-1.06 2.513-2.228 5.42-1.169 2.909-2.138 5.274-2.154 5.258a619 619 0 0 1-2.462-5.287c-1.34-2.891-2.484-5.317-2.544-5.391-.14-.171-.752-.175-.921-.006Zm-30.794.85c1.628.346 2.774 1.517 3.256 3.328.084.316.154.733.155.924v.35h-8.72l.066-.479c.276-2.014 1.654-3.648 3.45-4.092.695-.172 1.095-.178 1.793-.03Zm12.862-.011c1.697.322 2.91 1.626 3.358 3.614.096.425.175.823.175.885 0 .077-1.392.113-4.4.113-3.448 0-4.398-.029-4.397-.134.005-.413.371-1.595.666-2.148.616-1.155 1.585-1.949 2.768-2.267.716-.192 1.083-.205 1.83-.063Zm-32.082.169c2.188.64 3.538 2.794 3.391 5.409-.149 2.645-1.546 4.333-3.926 4.741-2.512.431-5.034-1.363-5.577-3.969-.682-3.27 1.612-6.322 4.77-6.346.418-.003 1.021.071 1.342.165Z" clip-rule="evenodd"/></g><defs><clipPath id="a"><path fill="#fff" d="M0 0h100v21.459H0z"/></clipPath></defs></svg>
